X:1
T:Title
L:1/8
M:2/4
K:Ab
V:1 treble nm="Grand Piano"
V:1
 z[Q:1/4=100] C FG | A3 G | F3 C | DE DE | DC =EF | G3 F | =E3 F | =EF GD | C2 AG | F2 FC | G2 BA | %11
 G2 =EC | A2 cB | =A2 AA | Bc ed | c4- | c2 CC | DD DD | =EE EE | F2 GA | B2 AG | c3 F | AG F=E | %23
 F4- | F4 | A2 AG | F2 C2- | CA AG | F2 D2- | DG GF | =E4 | =E F2 G | C4- | CA AG | F2 C2- | %35
 CA AG | F2 D2- | DG GF | =E4 | =E F2 G | F4- | F z z2 |] %42

